X: 63
T: No_67_Woman_on_a_White_Horse.krn
N: Derived from No_67_Woman_on_a_White_Horse.krn
%%abc-version 2.0
%%abcx-abcm2ps-target-version 5.9.1 (29 Sep 2008)
%%abc-creator hum2abc beta
%%abcx-conversion-date 2019/03/15 08:27:55
%%humdrum-veritas 3686149221
%%humdrum-veritas-data 2094583278
%%linebreak <none>
%%barnumbers 0
L: 1/8
M: 6/8
K: D clef=bass
[K:clef=bass][M:6/8]z4z A, | 
EEE/E/E2E | 
[M:2/4]F/E3/ D3/B,/ | 
[M:7/8]A,A,A,3z D | 
[M:5/8]B,B,B,2B, | 
[M:2/4]D/B,3/ A,3/F,/ | 
E,4 | 
z3B, | 
[M:5/8]A,A,A,2A, | 
[M:2/4]B,B, A,3/F,/ | 
E,E, F,E, | 
D,D,D,2- | 
D,4 |]  



